assets/img/braze_icons/log-out-03.svg

<svg fill="none" height="24" viewBox="0 0 24 24" width="24" xmlns="http://www.w3.org/2000/svg"><g fill="#801ed7"><path d="m8.07123 2.5573 1.10054.12227c.25196.02795.43928.04873.60828.08234 1.74645.34723 3.05305 1.80708 3.20535 3.58117.0147.17168.0147.36013.0146.61364v.04326c0 .55229-.4477 1-1 1s-1-.44771-1-1c0-.31558-.0009-.41113-.0073-.48589-.0762-.88704-.7295-1.61696-1.60268-1.79058-.07358-.01463-.16845-.02609-.4821-.06094l-1.02141-.11349c-.78157-.08684-1.3157-.14559-1.7317-.1621-.40829-.0162-.6194.01356-.76437.05995-.54182.17338-.98416.5693-1.21632 1.08866-.06211.13896-.115.34549-.14399.75307-.02954.41528-.03013.95263-.03013 1.73901v7.94463c0 .7864.00059 1.3237.03013 1.739.02899.4076.08187.6141.14399.7531.23216.5193.6745.9152 1.21632 1.0886.14496.0464.35608.0762.76438.06.416-.0165.95013-.0753 1.73169-.1621l1.02141-.1135c.31355-.0348.40854-.0463.4821-.0609.87318-.1737 1.52648-.9036 1.60268-1.7906.0064-.0748.0073-.1703.0073-.4859 0-.5523.4477-1 1-1s1 .4477 1 1v.0432c.0001.2535.0001.442-.0146.6137-.1523 1.7741-1.4589 3.2339-3.20535 3.5812-.169.0336-.35645.0544-.60837.0823l-1.10047.1223c-.73651.0818-1.34156.149-1.83711.1687-.51134.0203-.98863-.0049-1.45322-.1535-1.08363-.3468-1.96832-1.1386-2.43264-2.1773-.19906-.4454-.27677-.917-.31307-1.4274-.03519-.4947-.03518-1.1035-.03517-1.8445v-8.01738c-.00001-.74107-.00002-1.34986.03517-1.84455.0363-.51046.11401-.98204.31307-1.42736.46432-1.03872 1.34901-1.83056 2.43265-2.17733.46458-.14866.94186-.17381 1.4532-.15353.49555.01966 1.10061.0869 1.83714.16875z"/><path d="m15.2929 6.29289c.3905-.39052 1.0237-.39052 1.4142 0l5 5.00001c.3905.3905.3905 1.0237 0 1.4142l-5 5c-.3905.3905-1.0237.3905-1.4142 0s-.3905-1.0237 0-1.4142l3.2929-3.2929h-9.5858c-.55228 0-1-.4477-1-1s.44772-1 1-1h9.5858l-3.2929-3.29289c-.3905-.39053-.3905-1.02369 0-1.41422z"/></g></svg>

<svg width="24" height="24" viewBox="0 0 24 24" fill="none" xmlns="http://www.w3.org/2000/svg">
<path d="M8.07123 2.5573L9.17177 2.67957C9.42373 2.70752 9.61105 2.7283 9.78005 2.76191C11.5265 3.10914 12.8331 4.56899 12.9854 6.34308C13.0001 6.51476 13.0001 6.70321 13 6.95672L13 6.99998C13 7.55227 12.5523 7.99998 12 7.99998C11.4477 7.99998 11 7.55227 11 6.99998C11 6.6844 10.9991 6.58885 10.9927 6.51409C10.9165 5.62705 10.2632 4.89713 9.39002 4.72351C9.31644 4.70888 9.22157 4.69742 8.90792 4.66257L7.88651 4.54908C7.10494 4.46224 6.57081 4.40349 6.15481 4.38698C5.74652 4.37078 5.53541 4.40054 5.39044 4.44693C4.84862 4.62031 4.40628 5.01623 4.17412 5.53559C4.11201 5.67455 4.05912 5.88108 4.03013 6.28866C4.00059 6.70394 4 7.24129 4 8.02767V15.9723C4 16.7587 4.00059 17.296 4.03013 17.7113C4.05912 18.1189 4.112 18.3254 4.17412 18.4644C4.40628 18.9837 4.84862 19.3796 5.39044 19.553C5.5354 19.5994 5.74652 19.6292 6.15482 19.613C6.57082 19.5965 7.10495 19.5377 7.88651 19.4509L8.90792 19.3374C9.22147 19.3026 9.31646 19.2911 9.39002 19.2765C10.2632 19.1028 10.9165 18.3729 10.9927 17.4859C10.9991 17.4111 11 17.3156 11 17C11 16.4477 11.4477 16 12 16C12.5523 16 13 16.4477 13 17L13 17.0432C13.0001 17.2967 13.0001 17.4852 12.9854 17.6569C12.8331 19.431 11.5265 20.8908 9.78005 21.2381C9.61105 21.2717 9.4236 21.2925 9.17168 21.3204L8.07121 21.4427C7.3347 21.5245 6.72965 21.5917 6.2341 21.6114C5.72276 21.6317 5.24547 21.6065 4.78088 21.4579C3.69725 21.1111 2.81256 20.3193 2.34824 19.2806C2.14918 18.8352 2.07147 18.3636 2.03517 17.8532C1.99998 17.3585 1.99999 16.7497 2 16.0087V7.99132C1.99999 7.25025 1.99998 6.64146 2.03517 6.14677C2.07147 5.63631 2.14918 5.16473 2.34824 4.71941C2.81256 3.68069 3.69725 2.88885 4.78089 2.54208C5.24547 2.39342 5.72275 2.36827 6.23409 2.38855C6.72964 2.40821 7.3347 2.47545 8.07123 2.5573Z" fill="#801ED7"/>
<path d="M15.2929 6.29289C15.6834 5.90237 16.3166 5.90237 16.7071 6.29289L21.7071 11.2929C22.0976 11.6834 22.0976 12.3166 21.7071 12.7071L16.7071 17.7071C16.3166 18.0976 15.6834 18.0976 15.2929 17.7071C14.9024 17.3166 14.9024 16.6834 15.2929 16.2929L18.5858 13H9C8.44772 13 8 12.5523 8 12C8 11.4477 8.44772 11 9 11H18.5858L15.2929 7.70711C14.9024 7.31658 14.9024 6.68342 15.2929 6.29289Z" fill="#801ED7"/>
</svg>
